symbols/web/door_front/materialsymbolsrounded/door_front_20px.svg

<svg xmlns="http://www.w3.org/2000/svg" height="20" width="20"><path d="M3.375 17.5q-.354 0-.615-.26-.26-.261-.26-.615t.26-.615q.261-.26.615-.26h.771V4.25q0-.729.51-1.24.511-.51 1.24-.51h8.208q.729 0 1.24.51.51.511.51 1.24v11.5h.771q.354 0 .615.26.26.261.26.615t-.26.615q-.261.26-.615.26Zm10.729-1.75V4.25H5.896v11.5Zm-2.479-4.917q.354 0 .594-.239.239-.24.239-.594t-.239-.594q-.24-.239-.594-.239t-.594.239q-.239.24-.239.594t.239.594q.24.239.594.239ZM5.896 4.25v11.5-11.5Z"/></svg>

<svg xmlns="http://www.w3.org/2000/svg" height="20" width="20"><path d="M3.375 17.5Q3.021 17.5 2.76 17.24Q2.5 16.979 2.5 16.625Q2.5 16.271 2.76 16.01Q3.021 15.75 3.375 15.75H4.146V4.25Q4.146 3.521 4.656 3.01Q5.167 2.5 5.896 2.5H14.104Q14.833 2.5 15.344 3.01Q15.854 3.521 15.854 4.25V15.75H16.625Q16.979 15.75 17.24 16.01Q17.5 16.271 17.5 16.625Q17.5 16.979 17.24 17.24Q16.979 17.5 16.625 17.5ZM14.104 15.75V4.25Q14.104 4.25 14.104 4.25Q14.104 4.25 14.104 4.25H5.896Q5.896 4.25 5.896 4.25Q5.896 4.25 5.896 4.25V15.75ZM11.625 10.833Q11.979 10.833 12.219 10.594Q12.458 10.354 12.458 10Q12.458 9.646 12.219 9.406Q11.979 9.167 11.625 9.167Q11.271 9.167 11.031 9.406Q10.792 9.646 10.792 10Q10.792 10.354 11.031 10.594Q11.271 10.833 11.625 10.833ZM5.896 4.25Q5.896 4.25 5.896 4.25Q5.896 4.25 5.896 4.25V15.75V4.25Q5.896 4.25 5.896 4.25Q5.896 4.25 5.896 4.25Z"/></svg>
